ui/StatusQ/src/assets/img/icons/emojiReactions/sad.svg

<svg fill="none" height="32" viewBox="0 0 32 32" width="32" xmlns="http://www.w3.org/2000/svg" xmlns:xlink="http://www.w3.org/1999/xlink"><radialGradient id="a" cx="0" cy="0" gradientTransform="matrix(-15.5002138 22.49991078 -29.20940061 -20.12238887 21.5 6.5)" gradientUnits="userSpaceOnUse" r="1"><stop offset="0" stop-color="#ffd764"/><stop offset="1" stop-color="#ffb746"/></radialGradient><linearGradient id="b"><stop offset="0" stop-color="#6bc2ff"/><stop offset="1" stop-color="#2196e8"/></linearGradient><linearGradient id="c" gradientUnits="userSpaceOnUse" x1="8.6946" x2="7.30541" xlink:href="#b" y1="17.0608" y2="24.9393"/><linearGradient id="d" gradientUnits="userSpaceOnUse" x1="23.2158" x2="24.2577" xlink:href="#b" y1="20.3907" y2="26.2996"/><linearGradient id="e" gradientUnits="userSpaceOnUse" x1="22.4772" x2="23.1718" xlink:href="#b" y1="14.2605" y2="18.1997"/><circle cx="16" cy="16" fill="#ffd764" r="16"/><circle cx="16" cy="16" fill="url(#a)" r="16"/><path d="m10.7808 22.5058c-.2877 1.6317-1.84371 2.7212-3.47539 2.4335s-2.72119-1.8437-2.43348-3.4754c.26819-1.521 1.99892-3.8307 3.49933-4.325.2055-.0677.43052-.028.60047.1059 1.24087.9776 2.07727 3.74 1.80907 5.261z" fill="url(#c)"/><path clip-rule="evenodd" d="m16 21.875c-1.2649 0-2.1168.4117-3.1087.9076-.4322.2161-.9578.0409-1.1739-.3913s-.0409-.9578.3913-1.1739l.0053-.0027c1.007-.5035 2.1794-1.0897 3.886-1.0897 1.7069 0 2.8627.578 3.8631 1.0783l.0282.0141c.4323.2161.6074.7417.3913 1.1739s-.7417.6074-1.1739.3913c-.9931-.4965-1.8317-.9076-3.1087-.9076z" fill="#772622" fill-rule="evenodd"/><path d="m26.0828 23.693c.2158 1.2238-.6013 2.3908-1.8251 2.6066s-2.3907-.6014-2.6065-1.8251c-.1965-1.1143.3975-3.117 1.2925-3.8927.1635-.1417.3911-.1818.5932-.1046 1.1063.4228 2.3494 2.1016 2.5459 3.2158z" fill="url(#d)"/><path clip-rule="evenodd" d="m8 11.125c.48325 0 .875.3918.875.875 0 .5512.1799.9425.43122 1.1938s.64262.4312 1.19378.4312c.5512 0 .9425-.1799 1.1938-.4312s.4312-.6426.4312-1.1938c0-.4832.3918-.875.875-.875s.875.3918.875.875c0 .9488-.3201 1.8075-.9438 2.4312s-1.4824.9438-2.4312.9438c-.94884 0-1.80754-.3201-2.43122-.9438s-.94378-1.4824-.94378-2.4312c0-.4832.39175-.875.875-.875z" fill="#424242" fill-rule="evenodd"/><path d="m24.3885 16.462c.1439.8159-.4009 1.5938-1.2167 1.7377-.8158.1438-1.5938-.4009-1.7377-1.2167-.125-.7088.2298-1.9568.7809-2.519.1515-.1545.383-.1953.5782-.1019.7102.3398 1.4704 1.3911 1.5953 2.0999z" fill="url(#e)"/><path clip-rule="evenodd" d="m19 11.125c.4832 0 .875.3918.875.875 0 .5512.1799.9425.4312 1.1938s.6426.4312 1.1938.4312.9425-.1799 1.1938-.4312.4312-.6426.4312-1.1938c0-.4832.3918-.875.875-.875s.875.3918.875.875c0 .9488-.3201 1.8075-.9438 2.4312s-1.4824.9438-2.4312.9438-1.8075-.3201-2.4312-.9438-.9438-1.4824-.9438-2.4312c0-.4832.3918-.875.875-.875z" fill="#424242" fill-rule="evenodd"/></svg>

<svg width="32" height="32" viewBox="0 0 32 32" fill="none" xmlns="http://www.w3.org/2000/svg">
<circle cx="16" cy="16" r="16" fill="#FFD764"/>
<circle cx="16" cy="16" r="16" fill="url(#paint0_radial)"/>
<path d="M10.7808 22.5058C10.4931 24.1375 8.93709 25.227 7.30541 24.9393C5.67373 24.6516 4.58422 23.0956 4.87193 21.4639C5.14012 19.9429 6.87085 17.6332 8.37126 17.1389C8.57676 17.0712 8.80178 17.1109 8.97173 17.2448C10.2126 18.2224 11.049 20.9848 10.7808 22.5058Z" fill="url(#paint1_linear)"/>
<path fill-rule="evenodd" clip-rule="evenodd" d="M16 21.875C14.7351 21.875 13.8832 22.2867 12.8913 22.7826C12.4591 22.9987 11.9335 22.8235 11.7174 22.3913C11.5013 21.9591 11.6765 21.4335 12.1087 21.2174L12.114 21.2147C13.121 20.7112 14.2934 20.125 16 20.125C17.7069 20.125 18.8627 20.703 19.8631 21.2033L19.8913 21.2174C20.3236 21.4335 20.4987 21.9591 20.2826 22.3913C20.0665 22.8235 19.5409 22.9987 19.1087 22.7826C18.1156 22.2861 17.277 21.875 16 21.875Z" fill="#772622"/>
<path d="M26.0828 23.693C26.2986 24.9168 25.4815 26.0838 24.2577 26.2996C23.0339 26.5154 21.867 25.6982 21.6512 24.4745C21.4547 23.3602 22.0487 21.3575 22.9437 20.5818C23.1072 20.4401 23.3348 20.4 23.5369 20.4772C24.6432 20.9 25.8863 22.5788 26.0828 23.693Z" fill="url(#paint2_linear)"/>
<path fill-rule="evenodd" clip-rule="evenodd" d="M8 11.125C8.48325 11.125 8.875 11.5168 8.875 12C8.875 12.5512 9.0549 12.9425 9.30622 13.1938C9.55754 13.4451 9.94884 13.625 10.5 13.625C11.0512 13.625 11.4425 13.4451 11.6938 13.1938C11.9451 12.9425 12.125 12.5512 12.125 12C12.125 11.5168 12.5168 11.125 13 11.125C13.4832 11.125 13.875 11.5168 13.875 12C13.875 12.9488 13.5549 13.8075 12.9312 14.4312C12.3075 15.0549 11.4488 15.375 10.5 15.375C9.55116 15.375 8.69246 15.0549 8.06878 14.4312C7.4451 13.8075 7.125 12.9488 7.125 12C7.125 11.5168 7.51675 11.125 8 11.125Z" fill="#424242"/>
<path d="M24.3885 16.462C24.5324 17.2779 23.9876 18.0558 23.1718 18.1997C22.356 18.3435 21.578 17.7988 21.4341 16.983C21.3091 16.2742 21.6639 15.0262 22.215 14.464C22.3665 14.3095 22.598 14.2687 22.7932 14.3621C23.5034 14.7019 24.2636 15.7532 24.3885 16.462Z" fill="url(#paint3_linear)"/>
<path fill-rule="evenodd" clip-rule="evenodd" d="M19 11.125C19.4832 11.125 19.875 11.5168 19.875 12C19.875 12.5512 20.0549 12.9425 20.3062 13.1938C20.5575 13.4451 20.9488 13.625 21.5 13.625C22.0512 13.625 22.4425 13.4451 22.6938 13.1938C22.9451 12.9425 23.125 12.5512 23.125 12C23.125 11.5168 23.5168 11.125 24 11.125C24.4832 11.125 24.875 11.5168 24.875 12C24.875 12.9488 24.5549 13.8075 23.9312 14.4312C23.3075 15.0549 22.4488 15.375 21.5 15.375C20.5512 15.375 19.6925 15.0549 19.0688 14.4312C18.4451 13.8075 18.125 12.9488 18.125 12C18.125 11.5168 18.5168 11.125 19 11.125Z" fill="#424242"/>
<defs>
<radialGradient id="paint0_radial" cx="0" cy="0" r="1" gradientUnits="userSpaceOnUse" gradientTransform="translate(21.5 6.5) rotate(124.563) scale(27.3222 35.4697)">
<stop stop-color="#FFD764"/>
<stop offset="1" stop-color="#FFB746"/>
</radialGradient>
<linearGradient id="paint1_linear" x1="8.6946" y1="17.0608" x2="7.30541" y2="24.9393" gradientUnits="userSpaceOnUse">
<stop stop-color="#6BC2FF"/>
<stop offset="1" stop-color="#2196E8"/>
</linearGradient>
<linearGradient id="paint2_linear" x1="23.2158" y1="20.3907" x2="24.2577" y2="26.2996" gradientUnits="userSpaceOnUse">
<stop stop-color="#6BC2FF"/>
<stop offset="1" stop-color="#2196E8"/>
</linearGradient>
<linearGradient id="paint3_linear" x1="22.4772" y1="14.2605" x2="23.1718" y2="18.1997" gradientUnits="userSpaceOnUse">
<stop stop-color="#6BC2FF"/>
<stop offset="1" stop-color="#2196E8"/>
</linearGradient>
</defs>
</svg>
